X: 32059
T: Pelikan, The
R: waltz
M: 3/4
K: Gmajor
d>c B>A G>F|E<F G4|E>G c>B A>G|F2D4|
d>c B>A G>F|E<F G2-G>D|E>G c>B A<G|A6||
d>B B>A B/c/B/A/|G<B B>A G2|GB/d/ g>f e>d|d<B c2-c>d|
c>B A>B A>G|G<EG2F2-|FA/d/ f2e>d|B2G2-G>D|
G>B B>A B/c/B/A/|G<B B>A G2|GB/d/ g>f e>d|d<B c2-c>d|
c>B A>B A>G|G<EG2F2-|FA/d/ f2e>d|B2G2-G>D|
|:GB/d/ gf/g/ a>g|f2 d4|d>f f/e/f/g/ a>g|g<e c2 e2|
e>d d>c B>A|G<B d2-d>B|c2A>G FE/F/|1 G4D2:|2 G6||

